!!!Melodie: eigene
!!!Typ: Lied
**kern	**silbe	**silbe	**silbe	**silbe	**silbe	**silbe
*clefG2	*lang:DE	*lang:DE	*lang:DE	*lang:DE	*lang:DE	*lang:DE
*k[b-]	*	*	*	*	*	*
*M4/4	*	*	*	*	*	*
4cc	Mei#	Und	Wo	Täg#	Lie#	Leb’
4cc	#nem	sein	ich	#lich	#ber	ich,
4dd	Gott	ei#	bin,	gibt	Gott,	Gott,
4cc	ge#	#gen	hält	er	du	bist
=	=	=	=	=	=	=
4a	#hört	bin	Gott	mir	bist	du
4b-	die	auch	die	das	so	bei
2cc	Welt,	ich.	Wacht,	Brot,	groß,	mir,
=	=	=	=	=	=	=
4cc	mei#	Got#	führt	täg#	und	sterb’
4cc	#nem	#tes	und	#lich	ich	ich,
4dd	Gott	Hän#	schirmt	hilft	lieg’	bleib’
4cc	das	#de	mich	er	in	ich
=	=	=	=	=	=	=
4b-	Him#	hal#	Tag	in	dei#	auch
4a	#mels#	#ten	und	der	#nem	bei
2g	#zelt,	mich	Nacht;	Not,	Schoß	dir,
=	=	=	=	=	=	=
4g	ihm	gleich	ü#	täg#	wie	und
4g	ge#	dem	#ber	#lich	im	im
4a	#hört	Stern#	Bit#	schenkt	Mut#	Le#
4g	der	#lein	#ten	er	#ter#	#ben
=	=	=	=	=	=	=
4f	Raum,	in	und	sei#	#schoß	und
4f	die	der	Ver#	#ne	ein	im
2g	Zeit,	Bahn;	#steh’n	Huld	Kind;	Tod
=	=	=	=	=	=	=
4.cc	sein	keins	muss	und	Lie#	bin
8cc	ist	fällt	sein	ver#	#be	ich
4b-	auch	je	Wil#	#gibt	deckt	dein,
4a	die	aus	#le	mir	und	du
=	=	=	=	=	=	=
4g	E#	Got#	mir	mei#	birgt	lie#
4g	#wig#	#tes	ge#	#ne	mich	#ber
2f	#keit.	Plan.	#scheh'n.	Schuld.	lind.	Gott!
==	==	==	==	==	==	==
*-	*-	*-	*-	*-	*-	*-
